X: 232
T:Yam Petit que dansa
M:2/4
L:1/8
Q:80
R:Ronde
O:France
A:Aquitaine
K:C
Ae ed|e2c2|dd de|cB A z|Ae ed|e2c2|dd cB|
M:3/4
cB A z|AB|
M:2/4
czdz|c z||AB|czdz|ez ee/2e/2|e/2f/2e/2d/2 cB|A2||
W:
W: From "Falaleiro" http://home.t-online.de/home/pheld/homepage.htm
